X:1
T:Title
%%score 1 ( 2 3 ) { 4 | ( 5 6 ) }
L:1/8
Q:1/4=90
M:3/4
K:Eb
V:1 treble nm="Grand Piano, Soprano"
V:2 treble nm="Grand Piano, Staff-1"
V:3 treble 
V:4 bass nm="Choir Pad, Long Ago in Bethlehem"
V:5 bass 
V:6 bass 
V:1
 e2 d>c BG | FE F4 | G2 E4 | E2 G4 | G2 B_G B2- | BG B=E B2- | Bc dB d2- | dB dB d2- | dc c4 | %9
w: By~Henry~Davan~Wetton * * * *|||||||||
 d2 B4 | e2 d>c BG | FE F4 | G2 E4 | E2 G4 | G2 B3 G | AB B_d c2- | cc f3 e | dc dc B2 | c2 A4 | %19
w: ||||||||||
 G2 E4 | e2 d>c BG | FE F4 | G2 E4 | E2 G4 | G2 B_G B2- | BG B=E B2- | Bc dB d2- | dB dB d2- | %28
w: |||||||||
 dc c4 | d2 B4 | e2 d>c BG | FE F4 | G2 E4 | E2 G4 | G2 B3 G | AB B_d c2- | cc f3 e | dc dc B2 | %38
w: ||||||||||
 c2 A4 | G2 E4 | E2 G3 F | EF G>F E2 | G2 B4 | F2 G4 | B2 dc B2- | Bd fe d2 | f2 d3 c | Bc AG F2 | %48
w: ||||||||||
 G2 E4 | E2 G4 |] %50
w: ||
V:2
 [EGe]2 [EGd]>c BG | FE [A,CF]4 | [A,B,DG]2 [G,B,E]4 | [A,CE]2 [G,B,G]4 | z2 _G2 z2 | z2 z2 B2- | %6
 B z d4- | d4 z2 | z6 | [Ed]2 [DB]4 | z2 z2 .B2 | .F2 z2 z2 | [A,B,DG]2 [G,B,E]4 | %13
 [A,CE]2 [G,B,G]4 | [EG]2 B3 G | AB B_d [Ec]2- | [Ec][=Ec] f3 e | dc dc [FAB]2 | [Gc]2 [EA]4 | %19
 [B,DG]2 [B,E]4 | z2 z2 .B2 | .F2 z2 z2 | [A,B,DG]2 [G,B,E]4 | [A,CE]2 [G,B,G]4 | z2 _G2 z2 | %25
 z2 z2 B2- | B z d4- | d4 z2 | z6 | [Ed]2 [DB]4 | z2 z2 .B2 | .F2 z2 z2 | [A,B,DG]2 [G,B,E]4 | %33
 [A,CE]2 [G,B,G]4 | [EG]2 B3 G | AB B_d [Ec]2- | [Ec][=Ec] f3 e | dc dc [FAB]2 | [Gc]2 [EA]4 | %39
 [B,DG]2 [B,E]4 | z2 G4 | =B,-[B,F] G>F E2 | [EG]2 [EB]4 | [DF]2 [EG]4 | [GB]2 dc [=GB]2- | %45
 [GB][Gd] fe [Fd]2 | [Af]2 d3 c | B[Gc] [EA][DG] [B,F]2 | [DG]2 [CE]4 | [CE]2 [B,G]4 |] %50
V:3
 z2 z2 [B,E]2 | B,2 z2 z2 | x6 | x6 | [EG]2 B2- [=GB]2- | [GB-]2 [DB]2 E2- | E-[Ec] F2 G2- | %7
 G2 F2 [=Ed]2- | [Ed][=Ec] [_Ec]4 | x6 | [EGe]2 [EGd]>c [B,E]-[B,EG] | B,-[B,E] [A,CF]4 | x6 | x6 | %14
 z2 E4 | E2 E2 z2 | z2 F4 | =A2 _A2 z2 | x6 | x6 | [EGe]2 [EGd]>c [B,E]-[B,EG] | B,-[B,E] [A,CF]4 | %22
 x6 | x6 | [EG]2 B2- [=GB]2- | [GB-]2 [DB]2 E2- | E-[Ec] F2 G2- | G2 F2 [=Ed]2- | %28
 [Ed][=Ec] [_Ec]4 | x6 | [EGe]2 [EGd]>c [B,E]-[B,EG] | B,-[B,E] [A,CF]4 | x6 | x6 | z2 E4 | %35
 E2 E2 z2 | z2 F4 | =A2 _A2 z2 | x6 | x6 | E2 =B,3- [B,F] | .E2 _B,4 | x6 | x6 | z2 _G2 z2 | %45
 z2 F2 z2 | z2 A4- | A z z2 z2 | x6 | x6 |] %50
V:4
 B,2 B,2 G,2 | G,2 B,,4 | B,,2 E,4 | E,2 E,4 | B,2 B,4- | B,6- | B,6- | B,6- | B,2 B,4 | =A,2 B,4 | %10
 B,2 B,2 G,2 | G,2 B,,4 | B,,2 E,4 | E,2 E,4 | B,2[K:treble] _D4 | _D2 DB, C2- | C2 =A,4 | %17
 E2 FE D2 | _D2[K:bass] =B,4 | A,2 G,4 | B,2 B,2 G,2 | G,2 B,,4 | B,,2 E,4 | E,2 E,4 | B,2 B,4- | %25
 B,6- | B,6- | B,6- | B,2 B,4 | =A,2 B,4 | B,2 B,2 G,2 | G,2 B,,4 | B,,2 E,4 | E,2 E,4 | %34
 B,2[K:treble] _D4 | _D2 DB, C2- | C2 =A,4 | E2 FE D2 | _D2[K:bass] =B,4 | A,2 G,4 | E,2 E,3 A, | %41
 A,2 G,>A, G,2 | G,2 G,4 | B,2 B,4 | B,2 B,[K:treble]D D2- | DB, C2 D2 | D2 F3 E | %47
 DE C[K:bass]B, A,2 | A,2 G,4 | F,2 G,4 |] %50
V:5
 z2 E,4- | E,2 z2 z2 | E,,2 E,,4 | A,,2 E,,4 | E,2 F,2 G,2 | G,2 F,2 G,2 | _G,2 F,2 =E,2- | %7
 E,2 F,2 G,2 | C,2 F,4 | F,2 B,,4 | z2 E,4- | E,2 z2 z2 | E,,2 E,,4 | A,,2 E,,4 | E,2 E,4 | %15
 F,G, A,2 A,2 | z B, F,4 | F,2 B,,C, D,2 | =E,2 F,4 | B,,2 [F,,E,]4 | z2 E,4- | E,2 z2 z2 | %22
 E,,2 E,,4 | A,,2 E,,4 | E,2 F,2 G,2 | G,2 F,2 G,2 | _G,2 F,2 =E,2- | E,2 F,2 G,2 | C,2 F,4 | %29
 F,2 B,,4 | z2 E,4- | E,2 z2 z2 | E,,2 E,,4 | A,,2 E,,4 | E,2 E,4 | F,G, A,2 A,2 | z B, F,4 | %37
 F,2 B,,C, D,2 | =E,2 F,4 | B,,2 [F,,E,]4 | z2 A,,4 | A,,2 E,4 | C,2 B,,4 | B,,2 E,4 | %44
 E,2 D,2 G,2- | G,G, A,2 B,2 | z2 B,4- | B,2 z2 z2 | B,,2 C,4 | A,,2 [E,,E,]4 |] %50
V:6
 [E,,E,]2 E,,4- | E,,6 | x6 | x6 | x6 | x6 | x6 | x6 | x6 | x6 | [E,,E,]2 E,,4- | E,,6 | x6 | x6 | %14
 x6 | x6 | _G,2 z2 z2 | x6 | x6 | x6 | [E,,E,]2 E,,4- | E,,6 | x6 | x6 | x6 | x6 | x6 | x6 | x6 | %29
 x6 | [E,,E,]2 E,,4- | E,,6 | x6 | x6 | x6 | x6 | _G,2 z2 z2 | x6 | x6 | x6 | x6 | x6 | x6 | x6 | %44
 x6 | x6 | [B,,B,]2 B,,4- | B,,6 | x6 | x6 |] %50

